icons/general-save-1.svg

<svg fill="none" viewBox="0 0 24 24"><path stroke="currentColor" stroke-linecap="round" stroke-width="2" d="M6.6 20.4v-5.4a1.2 1.2 0 0 1 1.2-1.2h8.4a1.2 1.2 0 0 1 1.2 1.2v6m-2.4-13.8h-7.2a1.2 1.2 0 0 1-1.2-1.2v-3.6m14.4 4.2-3.6-3.6a2 2 0 0 0-1.5-.6h-11.4a2 2 0 0 0-2.1 2v15.1c0 1.2 1 2.1 2 2.1h15.1a2 2 0 0 0 2.1-2v-11.5q0-.9-.6-1.5Z"/></svg>

<svg fill="none" viewBox="0 0 24 24"><path stroke="currentColor" stroke-linecap="round" stroke-width="2" d="M6.6 20.4V15a1.2 1.2 0 0 1 1.2-1.2h8.4a1.2 1.2 0 0 1 1.2 1.2v6M15 7.2H7.8A1.2 1.2 0 0 1 6.6 6V2.4M21 6.6 17.4 3a2 2 0 0 0-1.5-.6H4.5a2 2 0 0 0-2.1 2v15.1c0 1.2 1 2.1 2 2.1h15.1a2 2 0 0 0 2.1-2V8q0-.9-.6-1.5Z"/></svg>
